flaticon/household/pipe-2.svg

<svg xmlns="http://www.w3.org/2000/svg" width="32" height="32" viewBox="0 0 24 24">
    <path d="M 24 12.828125 L 16.550781 12.828125 L 16.550781 10.757812 L 14.070312 10.757812 L 14.070312 12 L 12.214844 12 C 12.097656 12 12 11.90625 12 11.785156 L 12 9.929688 L 13.242188 9.929688 L 13.242188 7.449219 L 11.171875 7.449219 L 11.171875 0 L 2.070312 0 L 2.070312 7.449219 L 0 7.449219 L 0 9.929688 L 1.242188 9.929688 L 1.242188 15.074219 C 1.242188 19.3125 4.6875 22.757812 8.925781 22.757812 L 14.070312 22.757812 L 14.070312 24 L 16.550781 24 L 16.550781 21.929688 L 24 21.929688 Z M 2.898438 0.828125 L 10.34375 0.828125 L 10.34375 7.449219 L 2.898438 7.449219 Z M 0.828125 9.101562 L 0.828125 8.277344 L 12.414062 8.277344 L 12.414062 9.101562 Z M 8.925781 21.929688 C 5.144531 21.929688 2.070312 18.855469 2.070312 15.074219 L 2.070312 9.929688 L 11.171875 9.929688 L 11.171875 11.785156 C 11.171875 12.359375 11.640625 12.828125 12.214844 12.828125 L 14.070312 12.828125 L 14.070312 21.929688 Z M 15.722656 23.171875 L 14.898438 23.171875 L 14.898438 11.585938 L 15.722656 11.585938 Z M 23.171875 21.101562 L 16.550781 21.101562 L 16.550781 13.65625 L 23.171875 13.65625 Z M 23.171875 21.101562"/>
</svg>

<svg xmlns="http://www.w3.org/2000/svg" width="32" height="32" viewBox="0 0 24 24">
    <path d="M24 12.828h-7.45v-2.07h-2.48V12h-1.855a.214.214 0 0 1-.215-.215V9.93h1.242V7.45h-2.07V0H2.07v7.45H0v2.48h1.242v5.144c0 4.239 3.446 7.684 7.684 7.684h5.144V24h2.48v-2.07H24zM2.898.828h7.446V7.45H2.898zM.828 9.102v-.825h11.586v.825zM8.926 21.93a6.862 6.862 0 0 1-6.856-6.856V9.93h9.102v1.855c0 .574.469 1.043 1.043 1.043h1.855v9.102zm6.797 1.242h-.825V11.586h.825zm7.449-2.07H16.55v-7.446h6.62zm0 0"/>
</svg>
